packages/dnb-ui-lib/assets/icons/subtract_circled.svg

<svg width="16" height="16" viewBox="0 0 16 16" fill="none" xmlns="http://www.w3.org/2000/svg">
<path d="M11.1111 8.75C11.5253 8.75 11.8611 8.41421 11.8611 8C11.8611 7.58579 11.5253 7.25 11.1111 7.25V8.75ZM4.88889 7.25C4.47468 7.25 4.13889 7.58579 4.13889 8C4.13889 8.41421 4.47468 8.75 4.88889 8.75V7.25ZM14.25 8C14.25 11.4518 11.4518 14.25 8 14.25V15.75C12.2802 15.75 15.75 12.2802 15.75 8H14.25ZM8 14.25C4.54822 14.25 1.75 11.4518 1.75 8H0.25C0.25 12.2802 3.71979 15.75 8 15.75V14.25ZM1.75 8C1.75 4.54822 4.54822 1.75 8 1.75V0.25C3.71979 0.25 0.25 3.71979 0.25 8H1.75ZM8 1.75C11.4518 1.75 14.25 4.54822 14.25 8H15.75C15.75 3.71979 12.2802 0.25 8 0.25V1.75ZM11.1111 7.25H4.88889V8.75H11.1111V7.25Z" fill="black"/>
</svg>

<svg width="16" height="16" viewBox="0 0 16 16" fill="none" xmlns="http://www.w3.org/2000/svg"><path d="M11.111 8.75a.75.75 0 000-1.5v1.5zM4.89 7.25a.75.75 0 000 1.5v-1.5zm9.36.75A6.25 6.25 0 018 14.25v1.5A7.75 7.75 0 0015.75 8h-1.5zM8 14.25A6.25 6.25 0 011.75 8H.25A7.75 7.75 0 008 15.75v-1.5zM1.75 8A6.25 6.25 0 018 1.75V.25A7.75 7.75 0 00.25 8h1.5zM8 1.75A6.25 6.25 0 0114.25 8h1.5A7.75 7.75 0 008 .25v1.5zm3.111 5.5H4.89v1.5h6.222v-1.5z" fill="#000"/></svg>
